images/android.svg

<svg width="26" height="26" viewBox="0 0 26 26" fill="none" xmlns="http://www.w3.org/2000/svg">
<path fill-rule="evenodd" clip-rule="evenodd" d="M6.1196 7.8C6.54608 4.37986 9.46362 1.73334 12.9993 1.73334C16.5349 1.73334 19.4525 4.37986 19.879 7.8H6.1196ZM11.2663 5.2C11.2663 5.67864 10.8783 6.06667 10.3996 6.06667C9.92096 6.06667 9.53294 5.67864 9.53294 5.2C9.53294 4.72136 9.92096 4.33334 10.3996 4.33334C10.8783 4.33334 11.2663 4.72136 11.2663 5.2ZM16.4663 5.2C16.4663 5.67864 16.0783 6.06667 15.5996 6.06667C15.121 6.06667 14.7329 5.67864 14.7329 5.2C14.7329 4.72136 15.121 4.33334 15.5996 4.33334C16.0783 4.33334 16.4663 4.72136 16.4663 5.2Z" fill="#8B8BB8"/>
<path d="M4.33294 7.8C3.37565 7.8 2.59961 8.57603 2.59961 9.53334V15.6C2.59961 16.5573 3.37565 17.3333 4.33294 17.3333C5.29024 17.3333 5.19961 16.5573 5.19961 15.6V9.53334C5.19961 8.57603 5.29024 7.8 4.33294 7.8Z" fill="#8B8BB8"/>
<path d="M19.9329 8.66667H6.06628V17.3333C6.06628 18.2906 6.84232 19.0667 7.79961 19.0667V22.5333C7.79961 23.4906 8.57565 24.2667 9.53294 24.2667C10.4902 24.2667 11.2663 23.4906 11.2663 22.5333V19.0667H14.7329V22.5333C14.7329 23.4906 15.509 24.2667 16.4663 24.2667C17.4236 24.2667 18.1996 23.4906 18.1996 22.5333V19.0667C19.1569 19.0667 19.9329 18.2906 19.9329 17.3333V8.66667Z" fill="#8B8BB8"/>
<path d="M20.7996 9.53334C20.7996 8.57603 20.709 7.8 21.6663 7.8C22.6236 7.8 23.3996 8.57603 23.3996 9.53334V15.6C23.3996 16.5573 22.6236 17.3333 21.6663 17.3333C20.709 17.3333 20.7996 16.5573 20.7996 15.6V9.53334Z" fill="#8B8BB8"/>
<path fill-rule="evenodd" clip-rule="evenodd" d="M5.45404 2.85382C5.79249 2.51536 6.34123 2.51536 6.67969 2.85382L9.27969 5.45382C9.61814 5.79227 9.61814 6.34101 9.27969 6.67947C8.94123 7.01792 8.39249 7.01792 8.05404 6.67947L5.45404 4.07947C5.11558 3.74101 5.11558 3.19227 5.45404 2.85382Z" fill="#8B8BB8"/>
<path fill-rule="evenodd" clip-rule="evenodd" d="M20.546 2.85382C20.8844 3.19227 20.8844 3.74101 20.546 4.07947L17.946 6.67947C17.6075 7.01792 17.0588 7.01792 16.7203 6.67947C16.3819 6.34101 16.3819 5.79227 16.7203 5.45382L19.3203 2.85382C19.6588 2.51536 20.2075 2.51536 20.546 2.85382Z" fill="#8B8BB8"/>
</svg>

<svg width="26" height="26" fill="none" xmlns="http://www.w3.org/2000/svg"><path fill-rule="evenodd" clip-rule="evenodd" d="M6.12 7.8a6.935 6.935 0 0113.759 0H6.119zm5.146-2.6a.867.867 0 11-1.733 0 .867.867 0 011.733 0zm5.2 0a.867.867 0 11-1.733 0 .867.867 0 011.733 0z" fill="#8B8BB8"/><path d="M4.333 7.8c-.957 0-1.733.776-1.733 1.733V15.6c0 .957.776 1.733 1.733 1.733.957 0 .867-.776.867-1.733V9.533c0-.957.09-1.733-.867-1.733zM19.933 8.667H6.066v8.666c0 .958.776 1.734 1.734 1.734v3.466a1.733 1.733 0 103.466 0v-3.466h3.467v3.466a1.733 1.733 0 003.467 0v-3.466c.957 0 1.733-.776 1.733-1.734V8.667zM20.8 9.533c0-.957-.091-1.733.866-1.733.958 0 1.734.776 1.734 1.733V15.6c0 .957-.776 1.733-1.734 1.733-.957 0-.866-.776-.866-1.733V9.533z" fill="#8B8BB8"/><path fill-rule="evenodd" clip-rule="evenodd" d="M5.454 2.854a.867.867 0 011.226 0l2.6 2.6a.867.867 0 01-1.226 1.225l-2.6-2.6a.867.867 0 010-1.225zM20.546 2.854a.867.867 0 010 1.225l-2.6 2.6a.867.867 0 01-1.226-1.225l2.6-2.6a.867.867 0 011.226 0z" fill="#8B8BB8"/></svg>
